src/images/premium.svg

<?xml version="1.0" encoding="UTF-8"?>
<svg width="62px" height="72px" viewBox="0 0 62 72" version="1.1" xmlns="http://www.w3.org/2000/svg" xmlns:xlink="http://www.w3.org/1999/xlink">
    <!-- Generator: Sketch 53 (72520) - https://sketchapp.com -->
    <title>23</title>
    <desc>Created with Sketch.</desc>
    <g id="Marshmello_landing-page" stroke="none" stroke-width="1" fill="none" fill-rule="evenodd">
        <g id="Marshmello_landngpage-Copy" transform="translate(-1075.000000, -3550.000000)" fill-rule="nonzero">
            <g id="23" transform="translate(1075.000000, 3550.000000)">
                <path d="M30.8333272,22 C30.1884488,22 29.6666544,21.5074816 29.6666544,20.9000148 C29.6666544,13.9472836 28.5376068,4.79719443 25.3555067,1.89034612 C24.8917542,1.46767682 24.8803792,0.770973713 25.3292565,0.334967091 C25.7759464,-0.102827007 26.5175128,-0.111901884 26.977911,0.310217425 C31.6377481,4.56619754 32,17.1456279 32,20.9000148 C32,21.5074816 31.4782056,22 30.8333272,22 Z" id="Path" fill="#7E5C62"></path>
                <path d="M47.094613,18.1975376 C43.0245084,17.5904853 39.8293718,18.5030256 37.01229,19.3071036 C34.9974293,19.8829065 33.0944098,20.4270394 31.0000716,20.4270394 C28.9057334,20.4270394 27.0027139,19.8829065 24.9878532,19.3071036 C22.1696258,18.502465 18.9733435,17.5921669 14.9055302,18.1975376 C8.10555418,19.2123743 0,23.0780587 0,35.7310073 C0,47.6870789 4.05435232,64.0388146 15.4814911,70.7749651 C18.4910371,72.5484771 21.9435089,72.0274659 25.5996147,71.4788487 C27.371747,71.2117569 29.2043109,70.9358368 30.9999284,70.9358368 C32.7955459,70.9358368 34.6281097,71.2117569 36.4002421,71.4788487 C38.154474,71.7427174 39.8628812,72 41.4973958,72 C43.2683825,72 44.95445,71.6978752 46.5185089,70.7749651 C57.9456477,64.0388146 62,47.6870789 62,35.7310073 C62,23.0780587 53.894589,19.2123743 47.094613,18.1975376 Z" id="Path" fill="#FF4F19"></path>
                <path d="M31,20.4264912 L30.9995704,20.4264912 C28.9052661,20.4264912 27.0022773,19.8823427 24.9874492,19.3065234 C22.1692674,18.5018618 18.9730368,17.5915376 14.9052892,18.1969256 C8.10542313,19.2117914 0,23.0775863 0,35.7308968 C0,47.6873103 4.05428677,64.0395136 15.4812408,70.7758568 C18.4907382,72.5494195 21.9431541,72.0283934 25.5992008,71.4797605 C27.3713045,71.2126611 29.2038387,70.936733 30.9994272,70.936733 L30.9998568,70.936733 L30.9998568,20.4264912 L31,20.4264912 Z" id="Path" fill="#E3001E"></path>
                <path d="M46.9057256,3.06583437 C47.0394589,2.02225443 47.0240499,1.0332426 46.9027569,0.0972438491 C45.9669064,-0.0240500539 44.9777605,-0.0394591861 43.9341883,0.0942751172 C37.1584612,0.962134407 30.9620566,7.15858471 30.0942037,13.9343618 C29.9606118,14.9779418 29.9758794,15.9669536 30.0973138,16.902811 C31.0331643,17.0241049 32.0223102,17.0393727 33.0657411,16.9057797 C39.8414681,16.0379204 46.0378727,9.84147013 46.9057256,3.06583437 Z" id="Path" fill="#60DC4D"></path>
                <circle id="Oval" fill="#FF8C62" cx="48.5" cy="30.5" r="5.5"></circle>
                <path d="M46,0.0843581592 C45.1342281,-0.0212733571 44.2231087,-0.0358061007 43.2611249,0.0873185329 C36.811568,0.913397359 30.9134461,6.81140371 30.08737,13.2611161 C29.9641112,14.223103 29.9787784,15.1340907 30.0844096,16 L46,0.0843581592 Z" id="Path" fill="#00C37A"></path>
            </g>
        </g>
    </g>
</svg>

<svg width="62" height="72" xmlns="http://www.w3.org/2000/svg"><g fill-rule="nonzero" fill="none"><path d="M30.833 22c-.645 0-1.166-.493-1.166-1.1 0-6.953-1.13-16.103-4.311-19.01a1.055 1.055 0 01-.027-1.555A1.215 1.215 0 0126.978.31C31.638 4.566 32 17.146 32 20.9c0 .607-.522 1.1-1.167 1.1z" fill="#7E5C62"/><path d="M47.095 18.198c-4.07-.608-7.266.305-10.083 1.11-2.015.575-3.918 1.119-6.012 1.119-2.094 0-3.997-.544-6.012-1.12-2.818-.805-6.015-1.715-10.082-1.11C8.106 19.213 0 23.079 0 35.732c0 11.956 4.054 28.308 15.481 35.044 3.01 1.773 6.463 1.252 10.119.704 1.772-.267 3.604-.543 5.4-.543 1.796 0 3.628.276 5.4.543 1.754.264 3.463.521 5.097.521 1.771 0 3.457-.302 5.022-1.225C57.946 64.039 62 47.687 62 35.731c0-12.653-8.105-16.519-14.905-17.533z" fill="#FF4F19"/><path d="M31 20.426c-2.095 0-3.998-.544-6.013-1.12-2.818-.804-6.014-1.714-10.082-1.11C8.105 19.213 0 23.079 0 35.732 0 47.687 4.054 64.04 15.481 70.776c3.01 1.773 6.462 1.252 10.118.704 1.772-.267 3.605-.543 5.4-.543v-50.51H31z" fill="#E3001E"/><path d="M46.906 3.066a11.553 11.553 0 00-.003-2.969 11.553 11.553 0 00-2.969-.003c-6.776.868-12.972 7.065-13.84 13.84a11.552 11.552 0 00.003 2.969c.936.121 1.925.136 2.969.003 6.775-.868 12.972-7.065 13.84-13.84z" fill="#60DC4D"/><circle fill="#FF8C62" cx="48.5" cy="30.5" r="5.5"/><path d="M46 .084a10.971 10.971 0 00-2.739.003c-6.45.826-12.348 6.724-13.174 13.174A10.965 10.965 0 0030.084 16L46 .084z" fill="#00C37A"/></g></svg>
